svg/SJJB-OpenStreetMapIcons/shopping/laundrette.svg

<svg xmlns="http://www.w3.org/2000/svg" viewBox="0 0 580 580" xmlns:xlink="http://www.w3.org/1999/xlink"><defs><path id="0" d="M351.53308 124.30897A10.849787 10.849787 0 1 1 329.8335 124.30897 10.849787 10.849787 0 1 1 351.53308 124.30897z" stroke-linejoin="round" stroke-width="25" stroke="#fff" fill="none" stroke-linecap="round"/></defs><path d="m66.28 1.768c-41.34 0-64.57 21.371-64.57 65.04v450.12c0 40.844 20.895 62.23 62.19 62.23h452.02c41.31 0 62.23-20.315 62.23-62.23v-450.12c0-42.601-20.922-65.04-63.52-65.04-.004 0-448.5-.143-448.35 0z" fill="#111" stroke="#eee" stroke-width="3.408"/><g fill="none" stroke="#fff" stroke-linecap="round"><path d="m82.44 65.41v454.97h411.78v-454.97h-411.78zm203.56 132.69c55.22 0 100.03 44.841 100.03 100.06 0 55.22-44.81 100.03-100.03 100.03-55.22 0-100.06-44.81-100.06-100.03 0-55.22 44.841-100.06 100.06-100.06z" stroke-linejoin="round" stroke-width="20.955"/><g transform="matrix(1.04777 0 0 1.04777-9.583-13.992)"><path transform="translate(4.34 21.7)" d="m373.23 276.21c0 52.731-42.747 95.48-95.48 95.48-52.731 0-95.48-42.747-95.48-95.48 0-52.731 42.747-95.48 95.48-95.48 52.731 0 95.48 42.747 95.48 95.48z" stroke-linejoin="round" stroke-width="20"/><g fill-rule="evenodd"><path d="m190.79 250.2v99.76" stroke-width="18.665"/><path d="m370.09 300.08h-19.894" stroke-linejoin="round" stroke-width="39.801"/></g></g></g><use transform="matrix(.85303 0 0 .85303 92.87 12.03)" xlink:href="#0"/><use transform="matrix(.85303 0 0 .85303 150.14 12.03)" xlink:href="#0"/><use transform="matrix(.85303 0 0 .85303 35.588 12.03)" xlink:href="#0"/><g fill="#fff" stroke="#fff" stroke-linejoin="round" stroke-linecap="round"><path d="m82.44 65.41v454.97h411.78v-454.97h-411.78zm203.56 132.69c55.22 0 100.03 44.841 100.03 100.06 0 55.22-44.81 100.03-100.03 100.03-55.22 0-100.06-44.81-100.06-100.03 0-55.22 44.841-100.06 100.06-100.06z" opacity=".1" stroke-width="20.955"/><path transform="matrix(1.04777 0 0 1.04777-5.04 8.744)" d="M373.23267 276.20596A95.47812 95.47812 0 1 1 182.27643 276.20596 95.47812 95.47812 0 1 1 373.23267 276.20596z" opacity=".2" stroke-width="20"/></g></svg>

<?xml version="1.0" encoding="UTF-8" standalone="no"?>
<!-- Created with Inkscape (http://www.inkscape.org/) -->

<svg
   xmlns:dc="http://purl.org/dc/elements/1.1/"
   xmlns:cc="http://creativecommons.org/ns#"
   xmlns:rdf="http://www.w3.org/1999/02/22-rdf-syntax-ns#"
   xmlns:svg="http://www.w3.org/2000/svg"
   xmlns="http://www.w3.org/2000/svg"
   xmlns:sodipodi="http://sodipodi.sourceforge.net/DTD/sodipodi-0.dtd"
   xmlns:inkscape="http://www.inkscape.org/namespaces/inkscape"
   version="1.0"
   width="580"
   height="580"
   id="svg2"
   sodipodi:version="0.32"
   inkscape:version="0.48.0 r9654"
   sodipodi:docname="shopping_laundrette.svg"
   inkscape:output_extension="org.inkscape.output.svg.inkscape">
  <metadata
     id="metadata2975">
    <rdf:RDF>
      <cc:Work
         rdf:about="">
        <dc:format>image/svg+xml</dc:format>
        <dc:type
           rdf:resource="http://purl.org/dc/dcmitype/StillImage" />
        <cc:license
           rdf:resource="http://web.resource.org/cc/PublicDomain" />
        <dc:language>en</dc:language>
      </cc:Work>
    </rdf:RDF>
  </metadata>
  <sodipodi:namedview
     inkscape:window-height="978"
     inkscape:window-width="1400"
     inkscape:pageshadow="2"
     inkscape:pageopacity="0.0"
     guidetolerance="10.0"
     gridtolerance="10.0"
     objecttolerance="10.0"
     borderopacity="1.0"
     bordercolor="#666666"
     pagecolor="#ffffff"
     id="base"
     inkscape:zoom="0.23041928"
     inkscape:cx="978.97337"
     inkscape:cy="963.87757"
     inkscape:window-x="0"
     inkscape:window-y="24"
     inkscape:current-layer="svg2"
     showgrid="false"
     inkscape:window-maximized="0" />
  <defs
     id="defs4">
    <inkscape:perspective
       sodipodi:type="inkscape:persp3d"
       inkscape:vp_x="0 : 290 : 1"
       inkscape:vp_y="6.1230318e-14 : 1000 : 0"
       inkscape:vp_z="580 : 290 : 1"
       inkscape:persp3d-origin="290 : 193.33333 : 1"
       id="perspective2441" />
    <inkscape:perspective
       id="perspective3452"
       inkscape:persp3d-origin="30 : 20 : 1"
       inkscape:vp_z="60 : 30 : 1"
       inkscape:vp_y="0 : 1000 : 0"
       inkscape:vp_x="0 : 30 : 1"
       sodipodi:type="inkscape:persp3d" />
    <symbol
       viewBox="244.5 110 489 219.9"
       id="symbol-university">
      <path
         id="path4460"
         d="M79,43l57,119c0,0,21-96,104-96s124,106,124,106l43-133l82-17L0,17L79,43z" />
      <path
         id="path4462"
         d="M94,176l-21,39"
         stroke-width="20"
         stroke="#000000"
         fill="none" />
      <path
         id="path4464"
         d="M300,19c0,10.5-22.6,19-50.5,19S199,29.5,199,19s22.6-19,50.5-19S300,8.5,300,19z" />
      <path
         id="path4466"
         d="M112,216l-16-38L64,88c0,0-9-8-4-35s16-24,16-24"
         stroke-width="20"
         stroke="#000000"
         ill="none" />
    </symbol>
    <inkscape:perspective
       id="perspective4471"
       inkscape:persp3d-origin="372.04724 : 350.78739 : 1"
       inkscape:vp_z="744.09448 : 526.18109 : 1"
       inkscape:vp_y="0 : 1000 : 0"
       inkscape:vp_x="0 : 526.18109 : 1"
       sodipodi:type="inkscape:persp3d" />
    <inkscape:perspective
       id="perspective4668"
       inkscape:persp3d-origin="6 : 4 : 1"
       inkscape:vp_z="12 : 6 : 1"
       inkscape:vp_y="0 : 1000 : 0"
       inkscape:vp_x="0 : 6 : 1"
       sodipodi:type="inkscape:persp3d" />
  </defs>
  <g
     id="g1327">
    <path
       d="M 66.275,1.768 C 24.94,1.768 1.704,23.139 1.704,66.804 L 1.704,516.927 C 1.704,557.771 22.599,579.156 63.896,579.156 L 515.92,579.156 C 557.227,579.156 578.149,558.841 578.149,516.927 L 578.149,66.804 C 578.149,24.203 557.227,1.768 514.628,1.768 C 514.624,1.768 66.133,1.625 66.275,1.768 z "
       style="fill:#111;stroke:#eee;stroke-width:3.40799999"
       id="path1329" />
  </g>
  <g
     id="layer3"
     inkscape:label="Layout"
     style="display:none;stroke:#757575;stroke-opacity:1"
     transform="matrix(48.14969,0,0,48.14969,-536.27327,-33.306752)">
    <rect
       style="fill:none;stroke:#757575;stroke-width:0.10000000000000001;stroke-miterlimit:4;stroke-dasharray:none;stroke-opacity:1;display:inline"
       id="rect4134"
       width="10"
       height="10"
       x="1"
       y="1" />
    <rect
       style="fill:none;stroke:#757575;stroke-width:0.10000000000000001;stroke-miterlimit:4;stroke-dasharray:none;stroke-opacity:1;display:inline"
       id="rect4136"
       width="8"
       height="8"
       x="2"
       y="2" />
  </g>
  <g
     id="g3338"
     transform="matrix(1.3973279,-0.2437849,0.2437849,1.3973279,-185.07402,-56.183307)" />
  <path
     style="opacity:1;fill:none;fill-opacity:1;stroke:#ffffff;stroke-width:20.95545197;stroke-linecap:round;stroke-linejoin:round;stroke-miterlimit:4;stroke-dasharray:none;stroke-dashoffset:0;stroke-opacity:1"
     d="M 82.4375 65.40625 L 82.4375 520.375 L 494.21875 520.375 L 494.21875 65.40625 L 82.4375 65.40625 z M 286 198.09375 C 341.22173 198.09375 386.03125 242.93453 386.03125 298.15625 C 386.03124 353.37798 341.22172 398.1875 286 398.1875 C 230.77828 398.1875 185.9375 353.37797 185.9375 298.15625 C 185.9375 242.93453 230.77828 198.09375 286 198.09375 z "
     id="rect7039" />
  <g
     id="g7055"
     transform="matrix(1.0477726,0,0,1.0477726,-9.5831747,-13.991926)">
    <path
       transform="translate(4.3399146,21.699573)"
       d="m 373.23267,276.20596 c 0,52.73111 -42.74701,95.47812 -95.47812,95.47812 -52.73111,0 -95.47812,-42.74701 -95.47812,-95.47812 0,-52.73111 42.74701,-95.47812 95.47812,-95.47812 52.73111,0 95.47812,42.74701 95.47812,95.47812 z"
       sodipodi:ry="95.478119"
       sodipodi:rx="95.478119"
       sodipodi:cy="276.20596"
       sodipodi:cx="277.75455"
       id="path7043"
       style="opacity:1;fill:none;fill-opacity:1;stroke:#ffffff;stroke-width:20;stroke-linecap:round;stroke-linejoin:round;stroke-miterlimit:4;stroke-dasharray:none;stroke-dashoffset:0;stroke-opacity:1"
       sodipodi:type="arc" />
    <path
       sodipodi:nodetypes="cc"
       id="path7045"
       d="M 190.78628,250.19634 L 190.78628,349.95467"
       style="fill:none;fill-rule:evenodd;stroke:#ffffff;stroke-width:18.66513062;stroke-linecap:round;stroke-linejoin:miter;stroke-miterlimit:4;stroke-dasharray:none;stroke-opacity:1" />
    <path
       id="path7047"
       d="M 370.09478,300.0755 L 350.20059,300.0755"
       style="fill:none;fill-rule:evenodd;stroke:#ffffff;stroke-width:39.80064011;stroke-linecap:round;stroke-linejoin:round;stroke-miterlimit:4;stroke-dasharray:none;stroke-opacity:1" />
  </g>
  <path
     sodipodi:type="arc"
     style="fill:none;fill-opacity:1;stroke:#ffffff;stroke-width:25;stroke-linecap:round;stroke-linejoin:round;stroke-miterlimit:4;stroke-dasharray:none;stroke-dashoffset:0;stroke-opacity:1"
     id="path7049"
     sodipodi:cx="340.68329"
     sodipodi:cy="124.30897"
     sodipodi:rx="10.849787"
     sodipodi:ry="10.849787"
     d="M 351.53308,124.30897 A 10.849787,10.849787 0 1 1 329.8335,124.30897 A 10.849787,10.849787 0 1 1 351.53308,124.30897 z"
     transform="matrix(0.853028,0,0,0.853028,92.865028,12.025478)" />
  <path
     transform="matrix(0.853028,0,0,0.853028,150.14226,12.025478)"
     d="M 351.53308,124.30897 A 10.849787,10.849787 0 1 1 329.8335,124.30897 A 10.849787,10.849787 0 1 1 351.53308,124.30897 z"
     sodipodi:ry="10.849787"
     sodipodi:rx="10.849787"
     sodipodi:cy="124.30897"
     sodipodi:cx="340.68329"
     id="path7051"
     style="fill:none;fill-opacity:1;stroke:#ffffff;stroke-width:25;stroke-linecap:round;stroke-linejoin:round;stroke-miterlimit:4;stroke-dasharray:none;stroke-dashoffset:0;stroke-opacity:1"
     sodipodi:type="arc" />
  <path
     transform="matrix(0.853028,0,0,0.853028,35.587804,12.025478)"
     d="M 351.53308,124.30897 A 10.849787,10.849787 0 1 1 329.8335,124.30897 A 10.849787,10.849787 0 1 1 351.53308,124.30897 z"
     sodipodi:ry="10.849787"
     sodipodi:rx="10.849787"
     sodipodi:cy="124.30897"
     sodipodi:cx="340.68329"
     id="path7053"
     style="fill:none;fill-opacity:1;stroke:#ffffff;stroke-width:25;stroke-linecap:round;stroke-linejoin:round;stroke-miterlimit:4;stroke-dasharray:none;stroke-dashoffset:0;stroke-opacity:1"
     sodipodi:type="arc" />
  <path
     id="path7099"
     d="M 82.4375,65.40625 L 82.4375,520.375 L 494.21875,520.375 L 494.21875,65.40625 L 82.4375,65.40625 z M 286,198.09375 C 341.22173,198.09375 386.03125,242.93453 386.03125,298.15625 C 386.03124,353.37798 341.22172,398.1875 286,398.1875 C 230.77828,398.1875 185.9375,353.37797 185.9375,298.15625 C 185.9375,242.93453 230.77828,198.09375 286,198.09375 z"
     style="opacity:0.1;fill:#ffffff;fill-opacity:1;stroke:#ffffff;stroke-width:20.95545197;stroke-linecap:round;stroke-linejoin:round;stroke-miterlimit:4;stroke-dasharray:none;stroke-dashoffset:0;stroke-opacity:1" />
  <path
     transform="matrix(1.0477726,0,0,1.0477726,-5.0359311,8.744292)"
     d="M 373.23267,276.20596 A 95.478119,95.478119 0 1 1 182.27643,276.20596 A 95.478119,95.478119 0 1 1 373.23267,276.20596 z"
     sodipodi:ry="95.478119"
     sodipodi:rx="95.478119"
     sodipodi:cy="276.20596"
     sodipodi:cx="277.75455"
     id="path7103"
     style="fill:#ffffff;fill-opacity:1;stroke:#ffffff;stroke-width:20;stroke-linecap:round;stroke-linejoin:round;stroke-miterlimit:4;stroke-dasharray:none;stroke-dashoffset:0;stroke-opacity:1;opacity:0.2"
     sodipodi:type="arc" />
</svg>
